X:55
T:The Lass of Lochryan (not nearly so good as the common one)
Z:Jack Campin - http://www.campin.me.uk
S:Blaikie MS (NLS MS.1578) p18, Blaikie #52
M:2/4
L:1/8
V:1 midi program 1 74
V:2 midi program 1 46 bass middle = d transpose -24
Q:1/4=72
K:F
[V:1] c>c cd/e/|f>edc|Ac d/e/f/e/|d2 c>c|dG GA/B/|c>AGF|FG/A/ cA|G2 F2|]
[V:2] fa``c'b  |ac'ba|f2 f2      |B2 A2 |E2 e2   |A2 A2|B2    Ac|c2 F2|]
W:Transcription (c) Jack Campin 2009, no mirroring or republication without permission

